X:1
T:Title
%%score ( 1 2 ) { 3 | 4 }
L:1/8
Q:1/4=103
M:6/8
K:F
V:1 treble nm="Grand Piano, Soprano"
V:2 treble 
V:3 treble nm="Choir Pad, Having Done All, to Stand"
V:4 bass 
V:1
 [FA][FA][FA] [FA]2 [EG] | [CF]3 .C3 | [Fc][Fc][Fc] [Fc]2 [FB] | [FA]6 | [EB][EB][EB] BA[EG] | %5
w: By~Peter~Philip~Bilhorn * * * *|||||
 [FA]3 .[Ac]3 | [EG][EG][EG] [FA]2 [F=B] | [Ec]3 [GB]3 | [FA][FA][FA] [FA]2 [EG] | [CF]3 .C3 | %10
w: |||||
 [Fc][Fc][Fc] [Fc]2 [FB] | [FA]6 | [Fd][Fd][Fd] [Ff]2 [Fd] | [Fc]3 .[FA]3 | FF[FG] [FA]2 [EG] | %15
w: |||||
 F6 | [Ac]3 [FA]2 [Bd] | [Ac]6 | [GB]3 [EG]2 [Bd] | [Ac]6 | F[FA][Fc] [Ff][Fc][FA] | [Fe]3 [Fd]3 | %22
w: |||||||
 [Fc][FA]F [FA]2 [EG] | [CF]6- | [CF]3 z3 |] %25
w: |||
V:2
 x6 | x6 | x6 | x6 | z3 .E3 | x6 | x6 | x6 | x6 | x6 | x6 | x6 | x6 | x6 | x6 | x6 | x6 | x6 | x6 | %19
 x6 | x6 | x6 | x6 | x6 | x6 |] %25
V:3
 CCC C2 B, | A,3 .A,3 | A,A,A, A,2[K:treble] D | C6 | CCC C2 C | C3 .C3 | CCC =B,2 D | C6 | %8
 CCC C2[K:bass] B, | A,3 .A,3 | A,A,A, A,2 D | C6 | B,B,B, B,2 B, | A,3 .C3 | =B,B,B, C2 _B, | %15
 A,6 | C3 C2 C | C6 | C3 C2 C | C6 | A,CA, A,A,C | B,3 B,3 | A,CA, C2 B, | A,6- | A,3 z3 |] %25
V:4
 F,F,F, F,2 C, | F,3 .F,3 | F,F,F, F,2 F, | F,6 | C,C,C, C,2 C, | F,3 .F,3 | G,G,G, G,2 G, | C,6 | %8
 F,F,F, F,2 C, | F,3 .F,3 | F,F,F, F,2 F, | F,6 | B,,B,,B,, D,2 B,, | F,3 .F,3 | D,D,D, C,2 C, | %15
 F,6 | F,3 F,2 F, | F,6 | C,3 C,2 C, | F,6 | F,F,F, F,F,F, | B,,3 B,,3 | C,C,C, C,2 C, | %23
 [F,,F,]6- | [F,,F,]3 z3 |] %25

